X:14
T:Liberty
M:4/4
L:1/8
S:Dusty Strings jam?
Z:abc-transcription Josh Larios <hades@elsewhere.org>, 2014.01.13
K:D
ag|:"D"f2A2 f2A2| fefg fedf|"G"g2B2 g2B2| gfga gfeg|
"D"f2A2 f2A2| fefg fedf| "G"gfed "A"cABc| "D"d2f2 d4:|
|:"D"A2AB AGFE| DFAd f2d2| A2AB AGF2| "A"E3F E2FG|
"D"A2AB AGFE| DFAd f2ef| "G"gfed "A"cABc| "D"d2f2 d4:|

